Sweet-Rainbow/icons/applications-office.svg

<?xml version="1.0" encoding="UTF-8" standalone="no"?>
<!-- Generator: Gravit.io -->

<svg
   xmlns:dc="http://purl.org/dc/elements/1.1/"
   xmlns:cc="http://creativecommons.org/ns#"
   xmlns:rdf="http://www.w3.org/1999/02/22-rdf-syntax-ns#"
   xmlns:svg="http://www.w3.org/2000/svg"
   xmlns="http://www.w3.org/2000/svg"
   xmlns:sodipodi="http://sodipodi.sourceforge.net/DTD/sodipodi-0.dtd"
   xmlns:inkscape="http://www.inkscape.org/namespaces/inkscape"
   style="isolation:isolate"
   viewBox="0 0 36 36"
   width="48"
   height="48"
   version="1.1"
   id="svg9"
   sodipodi:docname="applications-office.svg"
   inkscape:version="0.92.4 (5da689c313, 2019-01-14)">
  <metadata
     id="metadata15">
    <rdf:RDF>
      <cc:Work
         rdf:about="">
        <dc:format>image/svg+xml</dc:format>
        <dc:type
           rdf:resource="http://purl.org/dc/dcmitype/StillImage" />
        <dc:title></dc:title>
      </cc:Work>
    </rdf:RDF>
  </metadata>
  <defs
     id="defs13" />
  <sodipodi:namedview
     pagecolor="#ffffff"
     bordercolor="#666666"
     borderopacity="1"
     objecttolerance="10"
     gridtolerance="10"
     guidetolerance="10"
     inkscape:pageopacity="0"
     inkscape:pageshadow="2"
     inkscape:window-width="640"
     inkscape:window-height="480"
     id="namedview11"
     showgrid="false"
     inkscape:zoom="29.365243"
     inkscape:cx="25.325443"
     inkscape:cy="32"
     inkscape:current-layer="svg9"
     units="px" />
  <linearGradient
     id="_lgradient_25"
     x1="0.22078557"
     y1="0.047239967"
     x2="0.9022491"
     y2="0.90614605"
     gradientTransform="matrix(43.5,0,0,44,2.5,2)"
     gradientUnits="userSpaceOnUse">
    <stop
       offset="2.608695652173913%"
       stop-opacity="1"
       style="stop-color:rgb(237,184,212)"
       id="stop2" />
    <stop
       offset="98.69565217391305%"
       stop-opacity="1"
       style="stop-color:rgb(162,110,245)"
       id="stop4" />
  </linearGradient>
  <g
     id="g826"
     transform="matrix(0.81818182,0,0,0.81818182,-1.8409091,-1.6363637)">
    <path
       id="path7"
       d="M 40.5,39.905 V 23 22 22 22 22 8.095 C 41.362,8.428 42,9.603 42,11 v 26 c 0,1.397 -0.638,2.572 -1.5,2.905 z M 39.62,44 c -0.863,1.21 -2.278,2 -3.876,2 H 7.256 C 4.631,46 2.5,43.869 2.5,41.244 V 22 22 c 0,-1.104 0.811,-2 1.81,-2 v 0 c 0.998,0 1.809,0.896 1.809,2 v 0 17.146 C 6.119,40.721 7.398,42 8.973,42 h 25.054 c 1.575,0 2.854,-1.279 2.854,-2.854 V 23 23 23 22 8.854 C 36.881,7.279 35.602,6 34.027,6 H 8.973 C 7.398,6 6.119,7.279 6.119,8.854 V 14 14 c 0,1.104 -0.811,2 -1.809,2 v 0 C 3.311,16 2.5,15.104 2.5,14 V 14 6.756 C 2.5,4.131 4.631,2 7.256,2 h 28.488 c 1.598,0 3.013,0.79 3.876,2 H 40 41 c 2.76,0 5,2.24 5,5 v 30 c 0,2.76 -2.24,5 -5,5 H 40 Z M 10.432,10 h 22.366 c 0.797,0 1.444,0.647 1.444,1.444 v 1.112 C 34.242,13.353 33.595,14 32.798,14 H 10.432 C 9.635,14 8.988,13.353 8.988,12.556 V 11.444 C 8.988,10.647 9.635,10 10.432,10 Z m 0,16 h 22.366 c 0.797,0 1.444,0.647 1.444,1.444 v 1.112 C 34.242,29.353 33.595,30 32.798,30 H 10.432 C 9.635,30 8.988,29.353 8.988,28.556 V 27.444 C 8.988,26.647 9.635,26 10.432,26 Z m 0,8 h 22.366 c 0.797,0 1.444,0.647 1.444,1.444 v 1.112 C 34.242,37.353 33.595,38 32.798,38 H 10.432 C 9.635,38 8.988,37.353 8.988,36.556 V 35.444 C 8.988,34.647 9.635,34 10.432,34 Z m 0,-16 h 22.366 c 0.797,0 1.444,0.647 1.444,1.444 v 1.112 C 34.242,21.353 33.595,22 32.798,22 H 10.432 C 9.635,22 8.988,21.353 8.988,20.556 V 19.444 C 8.988,18.647 9.635,18 10.432,18 Z"
       style="fill:url(#_lgradient_25);fill-rule:evenodd"
       inkscape:connector-curvature="0" />
  </g>
</svg>

<?xml version="1.0" encoding="UTF-8" standalone="no"?><!-- Generator: Gravit.io --><svg xmlns="http://www.w3.org/2000/svg" xmlns:xlink="http://www.w3.org/1999/xlink" style="isolation:isolate" viewBox="0 0 48 48" width="48pt" height="48pt"><linearGradient id="_lgradient_25" x1="0.22078557924020603" y1="0.04723996636961164" x2="0.9022490870014594" y2="0.9061460265379022" gradientTransform="matrix(43.5,0,0,44,2.5,2)" gradientUnits="userSpaceOnUse"><stop offset="2.608695652173913%" stop-opacity="1" style="stop-color:rgb(237,184,212)"/><stop offset="98.69565217391305%" stop-opacity="1" style="stop-color:rgb(162,110,245)"/></linearGradient><path d=" M 40.5 39.905 L 40.5 23 L 40.5 22 L 40.5 22 L 40.5 22 L 40.5 22 L 40.5 8.095 C 41.362 8.428 42 9.603 42 11 L 42 37 C 42 38.397 41.362 39.572 40.5 39.905 Z  M 39.62 44 C 38.757 45.21 37.342 46 35.744 46 L 7.256 46 C 4.631 46 2.5 43.869 2.5 41.244 L 2.5 22 L 2.5 22 C 2.5 20.896 3.311 20 4.31 20 L 4.31 20 C 5.308 20 6.119 20.896 6.119 22 L 6.119 22 L 6.119 39.146 C 6.119 40.721 7.398 42 8.973 42 L 34.027 42 C 35.602 42 36.881 40.721 36.881 39.146 L 36.881 23 L 36.881 23 L 36.881 23 L 36.881 22 L 36.881 8.854 C 36.881 7.279 35.602 6 34.027 6 L 8.973 6 C 7.398 6 6.119 7.279 6.119 8.854 L 6.119 14 L 6.119 14 C 6.119 15.104 5.308 16 4.31 16 L 4.31 16 C 3.311 16 2.5 15.104 2.5 14 L 2.5 14 L 2.5 6.756 C 2.5 4.131 4.631 2 7.256 2 L 35.744 2 C 37.342 2 38.757 2.79 39.62 4 L 40 4 L 41 4 C 43.76 4 46 6.24 46 9 L 46 39 C 46 41.76 43.76 44 41 44 L 40 44 L 39.62 44 Z  M 10.432 10 L 32.798 10 C 33.595 10 34.242 10.647 34.242 11.444 L 34.242 12.556 C 34.242 13.353 33.595 14 32.798 14 L 10.432 14 C 9.635 14 8.988 13.353 8.988 12.556 L 8.988 11.444 C 8.988 10.647 9.635 10 10.432 10 L 10.432 10 L 10.432 10 L 10.432 10 L 10.432 10 L 10.432 10 Z  M 10.432 26 L 32.798 26 C 33.595 26 34.242 26.647 34.242 27.444 L 34.242 28.556 C 34.242 29.353 33.595 30 32.798 30 L 10.432 30 C 9.635 30 8.988 29.353 8.988 28.556 L 8.988 27.444 C 8.988 26.647 9.635 26 10.432 26 L 10.432 26 L 10.432 26 L 10.432 26 L 10.432 26 L 10.432 26 Z  M 10.432 34 L 32.798 34 C 33.595 34 34.242 34.647 34.242 35.444 L 34.242 36.556 C 34.242 37.353 33.595 38 32.798 38 L 10.432 38 C 9.635 38 8.988 37.353 8.988 36.556 L 8.988 35.444 C 8.988 34.647 9.635 34 10.432 34 L 10.432 34 L 10.432 34 L 10.432 34 L 10.432 34 Z  M 10.432 18 L 32.798 18 C 33.595 18 34.242 18.647 34.242 19.444 L 34.242 20.556 C 34.242 21.353 33.595 22 32.798 22 L 10.432 22 C 9.635 22 8.988 21.353 8.988 20.556 L 8.988 19.444 C 8.988 18.647 9.635 18 10.432 18 L 10.432 18 L 10.432 18 L 10.432 18 Z " fill-rule="evenodd" fill="url(#_lgradient_25)"/></svg>
